ummisco.gama.ui.shared/svg/views/tabs/view.navigator.svg

<svg xmlns="http://www.w3.org/2000/svg" viewBox="-672 -3330 16 16" width="16" height="16"><g fill="none"><path d="M-665.6-3328.4h-4.8c-.88 0-1.592.72-1.592 1.6l-.008 9.6c0 .88.72 1.6 1.6 1.6h12.8c.88 0 1.6-.72 1.6-1.6v-8c0-.88-.72-1.6-1.6-1.6h-6.4l-1.6-1.6Z" fill="#5c76a2"/></g></svg>

<?xml version="1.0" encoding="UTF-8" standalone="no"?>
<!DOCTYPE svg PUBLIC "-//W3C//DTD SVG 1.1//EN" "http://www.w3.org/Graphics/SVG/1.1/DTD/svg11.dtd">
<svg xmlns:xl="http://www.w3.org/1999/xlink" version="1.1" xmlns="http://www.w3.org/2000/svg" xmlns:dc="http://purl.org/dc/elements/1.1/" viewBox="-672 -3330 16 16" width="16" height="16">
  <defs/>
  <g id="ICONES" stroke="none" stroke-opacity="1" stroke-dasharray="none" fill="none" fill-opacity="1">
    <title>ICONES</title>
    <g id="ICONES_Calque_1">
      <title>Calque 1</title>
      <g id="Group_3395">
        <g id="Graphic_3248">
          <title>views/tabs/view.navigator</title>
          <path d="M -665.6 -3328.4 L -670.4 -3328.4 C -671.28 -3328.4 -671.992 -3327.68 -671.992 -3326.8 L -672 -3317.2 C -672 -3316.32 -671.28 -3315.6 -670.4 -3315.6 L -657.6 -3315.6 C -656.72 -3315.6 -656 -3316.32 -656 -3317.2 L -656 -3325.2 C -656 -3326.08 -656.72 -3326.8 -657.6 -3326.8 L -664 -3326.8 L -665.6 -3328.4 Z" fill="#5c76a2"/>
        </g>
        <g id="Graphic_3394"/>
      </g>
    </g>
  </g>
</svg>
